X:18
T:Kathleen the VIII
R:reel
C:Dougie MacDonald
O:20th century Cape Breton
D:Fiddle Tunes
B:Cape Breton Fiddler Dougie MacDonald:Fiddle Tunes, 1993
N:Bookings,Mechanicals etc.
N:..... Dougie MacDonald <dougmd68@hotmail.com>
Z:P.S.C.
S:http://www.cranfordpub.com
Q:333
L:1/8
M:C|
K:Bminor
DA,A,D EFDF|AFAd e2 de|faaf efdg|[1fedA B2 Bd:|[2fedA B2 B||
g|fbbf e2 fe|d2 fe dBBd|AF F/F/F ABdg|faaf edeg|
fbba feef|d/d/d fe dBBd|AF F/F/F ABde|fedB A2 Ad|]
W:Copyrights - Dougie MacDonald (SOCAN)

